!!!!SEGMENT: artfugue-011.krn
!!!COM: Bach, Johann Sebastian
!!!CDT: 1685/03/31-1750/07/28
!!!OPR@@DE: Die Kunst der Fuge
!!!OPR@EN: The Art of the Fugue
!!!OTL: Contrapunctus 11, a 4.
!!!SCA: BWV 1080
!!!voices: 4
!!!AGN: Triple fugue
!!!ONB: three subjects of Contrapunctus 8 in inversion
**kern	**kern	**kern	**kern
*part2	*part2	*part1	*part1
*staff4	*staff3	*staff2	*staff1
*I"	*I"	*I"	*I"
*clefF4	*clefC4	*clefC3	*clefC1
*mclefF4	*mclefGv2	*mclefG2	*mclefG2
*k[b-]	*k[b-]	*k[b-]	*k[b-]
*d:	*d:	*d:	*d:
*M2/2	*M2/2	*M2/2	*M2/2
*met(c)	*met(c)	*met(c)	*met(c)
*mmet(c)	*mmet(c)	*mmet(c)	*mmet(c)
*MM120	*MM120	*MM120	*MM120
=1	=1	=1	=1
1r	1r	4r	1r
.	.	4d	.
.	.	4a	.
.	.	4g	.
=2	=2	=2	=2
1r	1r	4r	1r
.	.	4f	.
.	.	4e	.
.	.	4d	.
=3	=3	=3	=3
1r	1r	4r	1r
.	.	4c#X	.
.	.	4d	.
.	.	4e	.
=4	=4	=4	=4
1r	1r	4r	1r
.	.	8fL	.
.	.	8gJ	.
.	.	4f	.
.	.	4e	.
=5	=5	=5	=5
1r	1r	4d	4r
.	.	8cL	4a
.	.	8BXJ	.
.	.	4c	4ee
.	.	4d	4dd
=6	=6	=6	=6
1r	1r	4e	4r
.	.	4A	4cc
.	.	8dL	4bX
.	.	8eJ	.
.	.	4f	4a
=7	=7	=7	=7
.	.	(8qqf/	.
1r	1r	4.e)	4r
.	.	.	4g#
.	.	8d	.
.	.	8cL	4aX
.	.	8BX	.
.	.	8A	4bX
.	.	8G#J	.
!!LO:LB:g=original
=8	=8	=8	=8
1r	1r	8AL	4r
.	.	8eJ	.
.	.	[4a	8ccL
.	.	.	8ddJ
.	.	8aL]	4cc
.	.	8dJ	.
.	.	[4g	4bX
=9	=9	=9	=9
4r	1r	4g]	4a
4D	.	8fL	4bX
.	.	8gJ	.
4A	.	4f	4cc
4G	.	4e	4cc#X
=10	=10	=10	=10
4r	1r	4f	4dd
4F	.	4a	8cc#XL
.	.	.	8bXJ
4E	.	8gL	4cc#
.	.	8aJ	.
4D	.	[4b-	4dd
=11	=11	=11	=11
4r	1r	4b-]	4ee
4C#X	.	8aL	4gg
.	.	8b-J	.
4D	.	4a	4ff
4E	.	[4g	4ee
=12	=12	=12	=12
4r	1r	4g]	4aa
8FL	.	4f	4dd
8GJ	.	.	.
4F	.	4d	4bX
4E	.	[4g	4cc#X
=13	=13	=13	=13
2D	4r	4g]	2dd
.	4A	4f	.
4r	4e	8e	4ccn
.	.	4a	.
4E	4d	.	4bX
.	.	8g#	.
=14	=14	=14	=14
4r	4r	4a	4a
8EL	4c	8g#L	4ee
8DJ	.	8f#XJ	.
4E	4BX	4g#	4dd
4F	4A	4aX	[4cc
!!LO:LB:g=original
=15	=15	=15	=15
4BBX	4r	8dL	4cc]
.	.	8eJ	.
8CL	4G#	4f	4bX
8DJ	.	.	.
4C	4AX	4e	4a
4BB	4BX	[4d	4g#
=16	=16	=16	=16
4AA	4r	4d]	4a
4A	8cL	4c	4e
.	8dJ	.	.
4D	4c	4f	4r
[4G	4BX	8eL	4bX
.	.	8dJ	.
=17	=17	=17	=17
4G]	2A	4e	4cc#X
8FL	.	4f	2dd
8GJ	.	.	.
4F	4BX	[2g	.
4E	4c#X	.	4ee
=18	=18	=18	=18
4D	2d	4g]	4a
4r	.	8fL	8aaL
.	.	8eJ	8bb-J
2r	4r	4f	4aa
.	8dL	4b-	4gg
.	8c#XJ	.	.
=19	=19	=19	=19
4r	4d	4a	4ff
8DL	4e	4g	4cc#X
8EJ	.	.	.
4D	4f	4a	4dd
!!LO:MO:ori
*	*	*clefC1	*
!!LO:MO:end
4C	4f#X	[4ee-	4r
=20	=20	=20	=20
4BB-	4.g	4ee-]	1r
4B-	.	8ddL	.
.	8f#X	8ee-J	.
4E	4g	4dd	.
4F#X	4a	[4cc	.
=21	=21	=21	=21
2.G	4d	4cc]	4r
.	8gL	8b-L	8ffL
.	8aJ	8ccJ	8ggJ
.	4g	4b-	4ee
4A	4f	4a	4dd
!!LO:LB:g=original
=22	=22	=22	=22
4B-	2e	4g/	4cc#X
8AL	.	4c#X	4ee
8GJ	.	.	.
8FL	4d	4r	4aa
8E	.	.	.
8D	4E	[4a	4gg
8C#XJ	.	.	.
=23	=23	=23	=23
4D	4F	8a]	4r
.	.	4ee	.
2r	4d	.	4ff
.	.	8cc	.
.	4g	8b-	4ee
.	.	4a	.
4D	4f	.	4dd
.	.	8b-	.
=24	=24	=24	=24
4A	8e	4c#	4r
.	4f	.	.
4G	.	4b-	4cc#X
.	8e	.	.
4F	8A	4a	4dd
.	4d	.	.
4B-	.	4g	4ee
.	8c#X	.	.
=25	=25	=25	=25
8AL	4d	4f	4r
8GJ	.	.	.
4F	4a	2dd	8ffL
.	.	.	8ggJ
4G	4b-	.	4ff
[4A	4e	8cc#XL	4ee
.	.	8ccJ	.
=26	=26	=26	=26
8AL]	2f	4bX	2.dd
8G#	.	.	.
8AX	.	4b-	.
8G#J	.	.	.
4AX	8eL	2a	.
.	8fJ	.	.
4AA	[4g	.	4cc#X
=27	=27	=27	=27
2D	4g]	2a	2dd
.	4f	.	.
!!LO:MO:ori
*	*	*clefC3	*
!!LO:MO:end
2r	2r	2A	2r
=28	=28	=28	=28
1r	1r	4B-	4r
.	.	4F	4d
.	.	4c	4e-
.	.	4c#X	4eX
!!LO:LB:g=original
=29	=29	=29	=29
1r	1r	4d	4f
.	.	4A	4f#X
.	.	2e	4g
.	.	.	4g#
=30	=30	=30	=30
4r	1r	4f	8aL
.	.	.	8bX
2A	.	4e	8cc
.	.	.	8aJ
.	.	8dL	4.ff
.	.	8eJ	.
4G#	.	4d	.
.	.	.	16eeLL
.	.	.	16ddJJ
=31	=31	=31	=31
4Gn	1r	4.a	4cc#X
4F#X	.	.	4dd
.	.	8a	.
4F	.	8bXL	[2gg
.	.	8a	.
4E	.	8b	.
.	.	8cc#XJ	.
=32	=32	=32	=32
2D	1r	4dd	4gg]
.	.	4a	8ffL
.	.	.	8eeJ
2r	.	4dd	8ffL
.	.	.	8gg
.	.	4cc#X	8ff
.	.	.	8eeJ
=33	=33	=33	=33
1r	1r	4ccn	4dd
.	.	4bX	8ggL
.	.	.	8ff#XJ
.	.	4b-	8ggL
.	.	.	8aa
.	.	4a	8gg
.	.	.	8ffJ
=34	=34	=34	=34
1r	2r	8g#L	4ee
.	.	8cc	.
.	.	8bX	4ff#X
.	.	8aXJ	.
.	2E	8bL	4gg
.	.	8dd	.
.	.	8cc	4gg#
.	.	8bJ	.
=35	=35	=35	=35
4r	4F	2a	8aaL
.	.	.	8ggn
4AA	4C	.	8ff
.	.	.	8eeJ
4BB-	4G	4r	8ddL
.	.	.	8cc#XJ
4BBX	4G#	8r	[4dd
.	.	8f	.
!!LO:LB:g=original
=36	=36	=36	=36
4C	4A	4e	8ddL]
.	.	.	8ccn
4C#X	4E	4g	8b-
.	.	.	8aJ
4D	2BX	4f	(8g#L
.	.	.	8aX
4E-	.	4f#X	8g#
.	.	.	8aXJ)
=37	=37	=37	=37
2E	4c	8eL	4g#
.	.	8f#X	.
.	4BX	8g#	2ee
.	.	8eJ	.
2F	8AL	2aX	.
.	8BJ	.	.
.	4A	.	4dd#
=38	=38	=38	=38
4E	4e	4g#	4ddn
8r	4e	4g	4cc#X
8E	.	.	.
8F#XL	4d#	4aX	4cc
8E	.	.	.
8F#	4d	[4e	[4bX
8G#J	.	.	.
=39	=39	=39	=39
4A	4c#X	4e]	8bL]
.	.	.	8aJ
4r	2f	4a	8r
.	.	.	8aa
2r	.	4g#	8bXL
.	.	.	8a
.	4e	[4g	8b
.	.	.	8cc#XJ
=40	=40	=40	=40
4r	4d	8gL]	4dd
.	.	8fJ	.
4D	4r	2b-	8r
.	.	.	8dd
4C#X	2r	.	8eeL
.	.	.	8dd
4C	.	4a	8ee
.	.	.	8ff#XJ
=41	=41	=41	=41
4BBX	4r	4dd	8ggL
.	.	.	8gJ
2E	8r	8ccL	4gg
.	8G	8bXJ	.
.	8AL	4cc	4ff#X
.	8G	.	.
4D	8A	4dd	[4ff
.	8BXJ	.	.
=42	=42	=42	=42
4C	4c	4g	8ffL]
.	.	.	8ddJ
8r	4r	4cc	4ee
8C	.	.	.
8DL	2r	4bX	4ff
8C	.	.	.
8D	.	[4b-	4gg
8EJ	.	.	.
!!LO:LB:g=original
=43	=43	=43	=43
8FL	1r	8b-L]	4cc
8E	.	8aJ	.
8F	.	[4dd	4ff
8GJ	.	.	.
4A	.	16ddLL]	4ee
.	.	16cc	.
.	.	16b-	.
.	.	16aJJ	.
4AA	.	8gL	[4ee-
.	.	8f#XJ	.
=44	=44	=44	=44
4BB-	4r	4g	8ee-L]
.	.	.	8dd
4FF	4D	4a-	8cc
.	.	.	8bXJ
4C	4E-	4.g	8ccL
.	.	.	8b-J
4C#X	4EX	.	[4a
.	.	8g	.
=45	=45	=45	=45
4D	4F	4f	8aL]
.	.	.	8bXJ
4AA	4F#X	8eL	[4cc
.	.	8d#J	.
2E	4G	4eX	8ccL]
.	.	.	8b
.	4G#	4r	8cc#X
.	.	.	[8eeJ
=46	=46	=46	=46
4F	4A	4r	8ee]
.	.	.	4dd
4E	8r	4g	.
.	8A	.	8cc#X
8DL	4B-	4f#X	8dd
8EJ	.	.	4a
4D	4BX	4fn	.
.	.	.	8g#
=47	=47	=47	=47
2A	4c	4e	2a
.	4c#X	8r	.
.	.	8e	.
8r	8dL	4f	4r
4r	8e-	.	.
.	8d	4f#X	8r
8A	8cJ	.	8a
=48	=48	=48	=48
8GL	2d	[2g	4b-
8A	.	.	.
8G	.	.	4bX
8FJ	.	.	.
8EL	4G	8gL]	[2cc
8DJ	.	8fJ	.
4C	8cL	4e	.
.	8B-J	.	.
!!LO:LB:g=original
=49	=49	=49	=49
4D	8AL	4f	8ccL]
.	8FJ	.	8dd
4E	[4c	2g	8cc
.	.	.	8b-J
4F	8cL]	.	4a
.	8e	.	.
8r	8d	4f#X	[4dd
8D	8cJ	.	.
=50	=50	=50	=50
4E	8BXL	4g	8ddL]
.	8GJ	.	8ee
4F#X	[4d	2a	8dd
.	.	.	8ccJ
4G	8dL]	.	4bX
.	8f	.	.
8r	8e	4g#	[4ee
8E	8dJ	.	.
=51	=51	=51	=51
4F#X	4c	4a	8eeL]
.	.	.	8aa
4G#	4BX	[4b	8ee
.	.	.	8ddJ
4AX	16ALL	8bL]	4cc
.	16B	.	.
.	16c	16eL	.
.	16dJJ	16fJJ	.
8r	4e	16gLL	4cc#X
.	.	16aJ	.
8G	.	8b-J	.
=52	=52	=52	=52
8FL	4f	4a	4dd
8G	.	.	.
8F	4c#X	4g	4ee
8EJ	.	.	.
8DL	8d	4f	4ff
8AA	8r	.	.
8D	4r	8r	4ff#X
!!LO:MO:ori
*	*	*clefC1	*
!!LO:MO:end
8CJ	.	8dd	.
=53	=53	=53	=53
8BB-L	1r	8eeL	4gg
8C	.	8dd	.
8BB-	.	8ee	4aa
8AAJ	.	8ff#XJ	.
8GGL	.	8ggL	[2bb-
8DJ	.	8ff	.
[4G	.	8ee-	.
.	.	8ddJ	.
=54	=54	=54	=54
4G]	4r	4cc#X	8bb-L]
.	.	.	8eeJ
4F#X	8r	2dd	4aa
.	8A	.	.
4F	8BXL	.	4gg#
.	8A	.	.
4E	8B	4ee	4gg
.	8c#XJ	.	.
!!LO:LB:g=original
=55	=55	=55	=55
4r	8dL	4a	4ff#X
.	8AJ	.	.
4D	4d	8r	4ff
.	.	[8b-	.
4C#X	2r	8b-]L	4ee
.	.	8a	.
4C	.	8g	4ee-
.	.	8f#XJ	.
=56	=56	=56	=56
4BBX	8r	4g	4.dd
.	8C#XL	.	.
4BB-	8D	4g#	.
.	8EJ	.	8cc#X
4AA	8FL	4aX	4.dd
.	8EJ	.	.
4GG#	4F	4bX	.
.	.	.	8ee
=57	=57	=57	=57
.	.	.	(8qqdd
2AA	4E	4a	4cc#X)
!!LO:MO:ori
*	*	*clefC3	*
!!LO:MO:end
.	4A/	8r	4ff
.	.	8c#X	.
4r	4G#	8dL	4bX
.	.	8c#	.
8r	4G	8d	4b-
8C#X	.	8eJ	.
=58	=58	=58	=58
4D	4F#X	4A	4a
4r	4F	8r	4dd
.	.	8A	.
4r	4E	8B-L	2g
.	.	8A	.
4AA	4E-	8B-	.
.	.	8cJ	.
=59	=59	=59	=59
8BB-L	4D	8dL	4f
8AAJ	.	8B-	.
2GG	4r	8e-	4g
.	.	8dJ	.
.	2r	8cL	8aL
.	.	8e-	8gJ
4FF#X	.	8d	4a
.	.	[8cJ	.
=60	=60	=60	=60
4FFn	4r	8cL]	4d
.	.	8BXJ	.
4EE	8r	2c	4g/
.	8G	.	.
4EE-	8AL	.	4f#X
.	8G	.	.
4DD	8A	4d	[4f
.	8BXJ	.	.
!!LO:LB:g=original
=61	=61	=61	=61
4CC	8cL	4G	4f]
.	8CJ	.	.
8r	4c	4r	4e
8C	.	.	.
8DL	4BX	2r	4f
8C	.	.	.
8D	[4B-	.	4g/
8EJ	.	.	.
=62	=62	=62	=62
8FL	4B-]	4r	4c
8CJ	.	.	.
2F	4A	4a	8r
.	.	.	8cc
.	8BXL	4g#	8ddL
.	8A	.	8cc
4E	8B	[4g	8dd
.	8c#XJ	.	8eeJ
=63	=63	=63	=63
4D	8dL	8gL]	4a
.	8AJ	8fJ	.
4r	2d	8r	4ff
.	.	8f	.
2r	.	8gL	4ee
.	.	8f	.
.	4cn	8g	[4ee-
.	.	8aJ	.
=64	=64	=64	=64
4r	4B-	8b-L	8ee-L]
.	.	8f	8ddJ
4B-	4g	8b-	8r
.	.	8ddJ	8dd
4A	4f#X	8ccL	8ee-L
.	.	8bX	8dd
4A-	[4f	8cc	8ee-
.	.	8ddJ	8ffJ
=65	=65	=65	=65
4G	4f]	8bXL	4gg
.	.	8ddJ	.
4r	4e	4g	8r
.	.	.	8gg
2r	4d#	4f#X	8aaL
.	.	.	8gg#
.	[4d	4f	8aaX
.	.	.	8bbXJ
=66	=66	=66	=66
4r	4d]	4e	8gg#L
.	.	.	8bbXJ
8r	4c#X	8r	4ee
8E	.	8g#	.
8F#XL	4c	8aXL	4dd#
8E	.	8g#	.
8F#	[4BX	8aX	4dd
8G#J	.	8bXJ	.
!!LO:LB:g=original
=67	=67	=67	=67
8AL	4BnX]	4.e	4cc#X
8EJ	.	.	.
[4A	4A	.	4ffn
.	.	8d	.
8AL]	8r	4c#X	4ee
8G#J	4r	.	.
4AX	.	4c	4dd#
.	8f#X	.	.
=68	=68	=68	=68
4G#	8eL	8BXL	4ee
.	8d	8bX	.
4c	8c	8a	4ee
.	8BXJ	8g#J	.
4F#X	4c	8aXL	4dd#
.	.	8cc	.
4F	4d	8bn	4dd
.	.	8aJ	.
=69	=69	=69	=69
4E	8eL	4g#	4cc#X
.	8d#	.	.
4A	8eX	4g	4cc
.	8cJ	.	.
2D	8dL	4f#X	4bX
.	8c#X	.	.
.	8d	4f	4b-
.	8G#J	.	.
=70	=70	=70	=70
4C	8AL	4e	2.a
.	8BXJ	.	.
4D	4c	4f	.
8EL	2B	2e	.
8DJ	.	.	.
4E	.	.	4g#
=71	=71	=71	=71
4AA	4c	4e	4a
2r	4e	4r	2r
.	4A	4r	.
4G#	4BX	4f	4dd
=72	=72	=72	=72
2A	4r	4f	(4dd
.	4c	4e	4cc)
4r	4d	4r	4r
4C#X	4e	4g	4b-X
=73	=73	=73	=73
2D	4r	4g	4b-
.	4f	4f	8aL
.	.	.	8bXJ
4r	4e	4r	4cc
4E	4d	[4g#	8bL
.	.	.	8ccJ
!!LO:LB:g=original
=74	=74	=74	=74
2F	4r	4g#X]	4dd
.	8cL	4aX	8ccL
.	8BXJ	.	8ddJ
4r	4c	4r	4ee
4BBX	4d	4a	[4dd
=75	=75	=75	=75
8CL	2e	4g#	4dd]
8BBX	.	.	.
8C	.	2aX	4cc
8DJ	.	.	.
8EL	4r	.	4bX
8EEJ	.	.	.
4E	4B-X	4g	4cc#X
=76	=76	=76	=76
4F	4A	8fL	4dd
.	.	8eJ	.
4F#X	8dL	2d	4aa
.	8cJ	.	.
4G	4BX	.	4dd
4C#X	4B-	4g	4ee
=77	=77	=77	=77
4D	4A	8fL	4r
.	.	8a	.
4r	4D	8b-	4ff
.	.	8ddJ	.
2r	8EL	4cc#X	4gg
.	8D	.	.
.	8E	4cc	4aa
.	8F#XJ	.	.
=78	=78	=78	=78
4r	4G	8bXL	4r
.	.	8cc#XJ	.
4D	8F#XL	4dd	4bb-
.	8EJ	.	.
4E-	8F#L	4cc	4aa
.	8A	.	.
4EX	8c#X	4b-	4gg
.	[8eJ	.	.
=79	=79	=79	=79
4F	8e]	4a	4r
.	4d	.	.
4B-	.	4r	8ffL
.	8c#X	.	8eeJ
4A	8d	2r	4ff
.	4f	.	.
4G	.	.	4gg
.	8e	.	.
=80	=80	=80	=80
4d	8fL	4r	4.aa
.	8eJ	.	.
4D	4d	4bX	.
.	.	.	8gg
4AA	4r	8ccL	4ff#X
.	.	16ddL	.
.	.	16ee-JJ	.
4BBX	4g#	[4dd	4ff
!!LO:LB:g=original
=81	=81	=81	=81
4r	4a	8ddL]	4ee
.	.	16ccL	.
.	.	16b-JJ	.
4C	[4c	8aL	4ee-
.	.	8gJ	.
4D	8cL]	4f#X	4dd
.	8B-	.	.
4E	8A	4g	4cc#X
.	8GJ	.	.
=82	=82	=82	=82
4r	2d	8f#X	4ccn
.	.	4a	.
4F	.	.	4bX
.	.	4g	.
4E	4e	.	4cc#X
.	.	4b-	.
4D	4f	.	4dd
.	.	8a	.
=83	=83	=83	=83
4r	4g	8b-	[1ee
.	.	4a	.
8C#XL	4A	.	.
8AAJ	.	8b-	.
4BBX	4r	8aL	.
.	.	8g	.
4C#	8AL	8f	.
.	8B-J	8eJ	.
=84	=84	=84	=84
4D/	4.A	4f	8eeL]
.	.	.	8dd
4AA	.	4a	8cc#X
.	8G	.	8eeJ
4BB-	8FL	4d	8ddL
.	8DJ	.	8cc
4GG	[4G	4e	8b-
.	.	.	8ddJ
=85	=85	=85	=85
4AA	4G]	4r	8ccL
.	.	.	8b-
4D/	[4F	4f	8a
.	.	.	8ccJ
[2GG	8FL]	4g	8b-
.	8DJ	.	4gg
.	4E-	4a	.
.	.	.	8ff#X
=86	=86	=86	=86
2GG]	4D	4r	8ggL
.	.	.	8ffn
.	8GL	4b-	8ee
.	8FJ	.	8ddJ
[2AA	8EnL	4a	8ccL
.	8D	.	8dd
.	8E	4g	8b-
.	8CJ	.	8ccJ
=87	=87	=87	=87
4AA]	4F	4r	[2a
8BBXL	4r	8fL	.
8C#XJ	.	8eJ	.
4D/	2r	4f	8aL]
.	.	.	8b-
4BB-	.	4g	8a
.	.	.	8b-J
!!LO:LB:g=original
=88	=88	=88	=88
4F	4r	8aL	4cc
.	.	8b-J	.
8AAL	4a	2cc	2ff
8BB-J	.	.	.
4C	8gL	.	.
.	8fJ	.	.
4CC	4g	[4b-	4ee
=89	=89	=89	=89
2FF	2f	4b-]	2ff
.	.	4a	.
2AA	4r	2r	2r
.	[4E-	.	.
=90	=90	=90	=90
4BB-	8E-L]	2r	1r
.	8D	.	.
4FF	8F	.	.
.	8FJ	.	.
4C	8FL	4r	.
.	8EX	.	.
4C#X	8G	[4B-	.
.	8GJ	.	.
=91	=91	=91	=91
4D	8GL	8B-L]	1r
.	8F#X	8A	.
4AA	8A	8c	.
.	8AJ	8cJ	.
2E	8AL	8cL	.
.	8G#	8BX	.
.	8BX	8d	.
.	8BJ	8dJ	.
=92	=92	=92	=92
4F	8BXL	8dL	1r
.	8A	8c#	.
4E	8B	8d	.
.	8c#XJ	8eJ	.
8DL	8dL	8fL	.
8EJ	8G#	8e	.
4D	8AX	8f	.
.	8BnJ	8gJ	.
=93	=93	=93	=93
8AL	4.cn	8eL	2r
8EJ	.	8g	.
2A	.	8f	.
.	8c	8eJ	.
.	8B-XL	4d	4r
.	8A	.	.
4G	8B-	4e	[4b-
.	8cJ	.	.
=94	=94	=94	=94
4.F	4d	4f	8b-L]
.	.	.	8a
.	4A	4c	8cc
16GLL	.	.	8ccJ
16FJJ	.	.	.
8EL	[2e	4g	8ccL
8DJ	.	.	8bX
4E	.	4g#	8dd
.	.	.	8ddJ
!!LO:LB:g=original
=95	=95	=95	=95
4AA	4e]	4a	8ddL
.	.	.	8cc#X
2A	8dL	4e	8ee
.	8c#XJ	.	8eeJ
.	4f	2bX	8eeL
.	.	.	8dd
4G#	4r	.	8ff
.	.	.	8ffJ
=96	=96	=96	=96
2A	4r	4cc	8ffL
.	.	.	8ee
.	4d	4bX	8ff#X
.	.	.	8gg#J
4r	4c#X	8aL	8aaXL
.	.	8bJ	8gg#J
4D#	[4c	4a	[4aaX
=97	=97	=97	=97
2E	4c]	2ee	8aaL]
.	.	.	8ff#X
.	4BX	.	8ggn
.	.	.	8ggJ
!!LO:MO:ori
*	*	*clefC1	*
!!LO:MO:end
4A	4c	4r	8ggL
.	.	.	8ee
4BX	4g	[4dd	8ff
.	.	.	8ffJ
=98	=98	=98	=98
4c	2g	8ddL]	2ee
.	.	8bX	.
4E	.	8cc	.
.	.	8ccJ	.
4F#X	4r	8ccL	4ee-
.	.	8a	.
4G#	[4f	8b	[4dd
.	.	8bJ	.
=99	=99	=99	=99
[1A	8fL]	8bXL	8ddL]
.	8d#	8g#	8bX
.	8eX	8aX	8cc
.	8eJ	8ccJ	8eeJ
.	8eL	4f#X	4a
.	8c#X	.	.
.	8d	4f	[4b
.	8dJ	.	.
=100	=100	=100	=100
4A]	8dL	2e	8bL]
.	8BXJ	.	8a-
[4A	4cn	.	8aX
.	.	.	8ccJ
8AL]	4d	4f#X	8bXL
8F#X	.	.	8dd
8G	4e	4b-X	8cc#X
8GJ	.	.	8eeJ
!!LO:LB:g=original
=101	=101	=101	=101
8GL	4.A	4a	8ddL
8E	.	.	8cc#XJ
!!LO:MO:ori
*	*	*clefC3	*
!!LO:MO:end
8Fn	.	4d	2dd
8FJ	8A	.	.
8FL	4BX	4a	.
8D	.	.	.
8E	4c#X	4g	12ggL
.	.	.	12ff
8EJ	.	.	.
.	.	.	12eeJ
=102	=102	=102	=102
8EL	4d	4r	4ff
8C#X	.	.	.
8D	2r	4f	8aL
8EJ	.	.	8gJ
8FL	.	4e	4a
8E	.	.	.
8F	4g	4d	[4b-
8GJ	.	.	.
=103	=103	=103	=103
4C#X	4e	4r	8b-L]
.	.	.	8g
2r	4G	4c#X	8a
.	.	.	8aJ
.	4F	4d	8aL
.	.	.	8f
[4BB-	4C#X	4e	8g
.	.	.	8gJ
=104	=104	=104	=104
8BB-L]	4D	4r	8fL
8GG#	.	.	16eL
.	.	.	16dJJ
8AAX	4A	8fL	4dd
8AAJ	.	8gJ	.
8AAL	4d	4f	4bX
8FF	.	.	.
8GG	[4a	4e	4cc#X
8GGJ	.	.	.
=105	=105	=105	=105
8GGL	4a]	4d	4dd
8EE	.	.	.
8FF#X	4r	[4a	4ccn
8FF#J	.	.	.
4GG	2d	8aL]	4bX
.	.	8f#X	.
4EE	.	8g	[4b-
.	.	8gJ	.
=106	=106	=106	=106
4AA	4c#X	8gL	8b-L]
.	.	8e	8aJ
4A	4f	8fn	[4dd
.	.	8fJ	.
4G#	4BX	8fL	8ddL]
.	.	8d	8bX
4G	4B-	8e	8cc#X
.	.	8eJ	8eeJ
!!LO:LB:g=original
=107	=107	=107	=107
4F#X	4A	8eL	4aa
.	.	8c#XJ	.
4F	4d	4d	8aL
.	.	.	8ddJ
4E	2G	4r	8ddL
.	.	.	8bX
4E-	.	4c	8cc
.	.	.	8ccJ
=108	=108	=108	=108
4D	4F	4f	8ccL
.	.	.	8a
4D-	4G	4e	8b-X
.	.	.	8b-J
4C	8AL	4e-	8ccL
.	8GJ	.	8ddJ
4F	4A/	8r	[4ee-
.	.	[8cc	.
=109	=109	=109	=109
2BB-	4D	8ccL]	4ee-]
.	.	8a	.
.	4F	8b-	4dd
.	.	8b-J	.
2r	4.c	8b-L	4eeX
.	.	8g	.
.	.	8a-	[4ff
.	16dLL	8a-J	.
.	16cJJ	.	.
=110	=110	=110	=110
1r	4BX	4.g	8ffL]
.	.	.	8dd
.	[4c	.	8ee-
.	.	8an	8ee-J
.	8cL]	4.f#X	8ee-L
.	8A	.	8cc
.	8B-	.	8dd
.	8B-J	8g	8ddJ
=111	=111	=111	=111
2r	8B-L	4c	4een
.	8G	.	.
.	8A	[4cc	4ff#X
.	8AJ	.	.
4r	4G	8ccL]	4gg
.	.	8a	.
[4GG	4g	8b-	4ee-
.	.	8b-J	.
=112	=112	=112	=112
8GGL]	4e	2a	4cc#X
8EE	.	.	.
8FF	2d	.	4dd
8FFJ	.	.	.
8FFL	.	2g	4bX
8DD	.	.	.
8EE-	[4c	.	4cc
8EE-J	.	.	.
!!LO:LB:g=original
=113	=113	=113	=113
8EE-L	4c]	[2f	4a
8CC	.	.	.
8DD	8B-L	.	2b-
8EE-J	8cJ	.	.
8FFL	4d	8fL]	.
8EE-J	.	8g	.
4FF	4c	8f	4a
.	.	[8e-J	.
=114	=114	=114	=114
4BB-	4.B-	8e-L]	4b-
.	.	8d	.
4D	.	8f	4f
.	8A	8fJ	.
2E-	8GL	8fL	4cc
.	8B-	8e-	.
.	8A	8g	4cc#X
.	8GJ	8gJ	.
=115	=115	=115	=115
4D	4A	8gL	4dd
.	.	8f#X	.
4F#X	8dL	8a	4a
.	8cJ	8aJ	.
4G	8BXL	8aL	2ee
.	8c#XJ	8g	.
4G#	[4d	8bX	.
.	.	8bJ	.
=116	=116	=116	=116
4A	8dL]	4a	4ff
.	8c#XJ	.	.
8r	[4g	8bXL	4ee
8A	.	8cc#XJ	.
4B-	8gL]	4dd	8ddL
.	8e	.	8eeJ
4BX	8f	4r	4dd
.	8fJ	.	.
=117	=117	=117	=117
4c	8fL	2r	4aa
.	8d#	.	.
4c#X	8eX	.	[4gg
.	8eJ	.	.
4d	8eL	4r	8ggL]
.	8A	.	8ee
4D	8d	[4dd	8ff
.	8cJ	.	8ffJ
=118	=118	=118	=118
4G	4BX	8ddL]	8ffL
.	.	8bX	8dd#
4C	4B-	8cc	8eeX
.	.	8ccJ	8eeJ
4F	4A	8ccL	8eeL
.	.	8a	8cc#X
4BBX	8r	8bn	8dd
.	8A	8bJ	8ddJ
!!LO:LB:g=original
=119	=119	=119	=119
4E	4G#	8bXL	8ddL
.	.	8g#	8bX
8r	4G	8aX	8cc
8E	.	8aJ	8ccJ
4D#	4F#X	8aL	8ccL
.	.	8f#X	8a
4D	4F	8g#	8b
.	.	8g#J	8bJ
=120	=120	=120	=120
4C#X	2.E	8g#L	8bXL
.	.	16aXL	8eeJ
.	.	16gJJ	.
4C	.	8f#XL	[4a
.	.	8eJ	.
8BBXL	.	[2f#	8aL]
8AAJ	.	.	8cc
4BB	4D#	.	8b
.	.	.	8aJ
=121	=121	=121	=121
4EE	4E	8f#L]	4g#
.	.	8e	.
4r	2e	8g#	4bX
.	.	8g#J	.
2r	.	8g#L	4aX
.	.	8f#X	.
.	4d#	8aX	4cc
.	.	8aJ	.
=122	=122	=122	=122
4r	4e	8aL	4bX
.	.	8g#	.
4E	4G#	8bX	[4dd
.	.	8bJ	.
4F	4AX	8bL	8ddL]
.	.	8aX	8cc
4F#X	4r	8cc	8ee-
.	.	8ccJ	8ee-J
!!LO:MO:ori
*	*	*clefC1	*
!!LO:MO:end
=123	=123	=123	=123
4G	4r	8ccL	8ee-L
.	.	8bX	8dd
4G#	2r	8dd	8ff
.	.	8ddJ	8ffJ
4AX	.	8ddL	8ffL
.	.	8cc#X	8eeX
4r	4e	8ee	8gg
.	.	8eeJ	8ggJ
=124	=124	=124	=124
4r	4f	8eeL	8ggL
.	.	8dd	8ff
4A	4f#X	8ee-	8ccc
.	.	8ee-J	8cccJ
4B-	4g	8ee-L	8cccL
.	.	8dd	8bb-
4BX	4g#	8dd	8ff
.	.	8ddJ	8ffJ
!!LO:LB:g=original
=125	=125	=125	=125
4c	[2a	8ddL	8ffL
.	.	8cc	8ee
4c#X	.	8g	8ee
.	.	8gJ	8eeJ
[2d	8aL]	4f	8eeL
.	8f	.	8dd
.	8g	8ddL	8bb-
.	8gJ	8ddJ	8bb-J
=126	=126	=126	=126
4d]	8gL	8b-L	4cc#X
.	8e	8gJ	.
8dL	8f	4a	4dd
8dJ	8fJ	.	.
8dL	8fL	4g#	4bX
8BX	8d	.	.
8c	8e	8aXL	4ee
8cJ	8eJ	8gJ	.
=127	=127	=127	=127
8cL	8eL	4f#X	4a
8A	8c	.	.
8BX	8d	[4g#	8ddL
8BJ	8dJ	.	8eeJ
8BL	[2d	8g#L]	[2ff
8G#	.	8bX	.
8AX	.	8aX	.
8AJ	.	8ccJ	.
=128	=128	=128	=128
4G#	4d]	4bX	8ff]
.	.	.	4ee
4AX	4c	2a	.
.	.	.	8dd
4D	4f	.	8ccL
.	.	.	8.bX
4E	4BX	4g#	.
.	.	.	16ak
.	.	.	8bJ
!!LO:MO:ori
*	*	*clefC3	*
!!LO:MO:end
=129	=129	=129	=129
[1AA	8cL	4a	2a
.	8d	.	.
.	8e	4gn	.
.	8eJ	.	.
.	8eL	4f#X	4r
.	8c#X	.	.
.	8d	4f	4g#
.	8dJ	.	.
=130	=130	=130	=130
4AA]	8dL	4.e	4.a
.	8BX	.	.
8AL	8cn	.	.
8AJ	8cJ	8e	8a
8AL	8dL	8fL	8bXL
8F	8f	8a	8dd
8G	8B-	8e	8cc#X
8GJ	8B-J	8eJ	8cc#J
=131	=131	=131	=131
8GL	8B-L	8eL	8cc#XL
8E	8G	8g	8ee
8F	8A	8f	8dd
8FJ	8AJ	8fJ	8ddJ
8FL	8AL	8fL	8ddL
8D	8F	8a	8ff
8E	8G	8g	8ee
8EJ	8GJ	8gJ	8eeJ
!!LO:LB:g=original
=132	=132	=132	=132
8EL	8GL	8gL	8eeL
8C#XJ	8EJ	8b-	8gg
4D	4F	8a	8ff
.	.	8ddJ	8ffJ
4A	4r	8ddL	8ffL
.	.	8bX	8dd
4G	4B-	8cc#X	8ee
.	.	8cc#J	8eeJ
=133	=133	=133	=133
4r	2A	8cc#XL	8eeL
.	.	8e	8cc#X
4F	.	8f	8dd
.	.	8fJ	8ddJ
4E	[2G	[2b-	(8ddL
.	.	.	8cc#)
4D	.	.	(8ee
.	.	.	8ddJ)
=134	=134	=134	=134
4r	4G]	4.b-]	(8ffL
.	.	.	8eeJ)
4C#X	4E	.	[4gg
.	.	8b-	.
4D	4F	4a	8ggL]
.	.	.	8ff
4E	4G	[4g	8ee
.	.	.	8ddJ
=135	=135	=135	=135
4r	4.A	4g]	8cc#XL
.	.	.	8aJ
8FL	.	8fL	2dd
8GJ	8B-	8dJ	.
4F	(8B-L	[2g	.
.	8A)	.	.
4E	(8A	.	4cc#
.	8GJ)	.	.
=136	=136	=136	=136
8DL	2A	4g]	8ddL
8C#X	.	.	8a
8D	.	8fL	8dd
8EJ	.	8gJ	8ddJ
4F	4r	4f	8ddL
.	.	.	8bX
4F#X	4A	[4e-	8cc
.	.	.	8ccJ
=137	=137	=137	=137
4G	4B-	8e-L]	4b-X
.	.	8d	.
4D	4F	8f	[4a
.	.	8fJ	.
[2A	4c	8fL	8aL]
.	.	8eX	8g
.	4c#X	8g	8b-
.	.	8gJ	8b-J
=138	=138	=138	=138
1A_	4d	8gL	8b-L
.	.	8f#X	8a
.	4A	8a	8cc
.	.	8aJ	8ccJ
.	2e	8aL	8ccL
.	.	8g#	8bX
.	.	8bX	8dd
.	.	8bJ	8ddJ
!!LO:LB:g=original
=139	=139	=139	=139
1A_	4f	8bXL	8ddL
.	.	8a	8cc#X
.	4e	8b	8dd
.	.	8cc#XJ	8eeJ
.	8dL	8ddL	8ffL
.	8eJ	8cc#	8ee
.	4d	8dd	8ff
.	.	8eeJ	8ggJ
=140	=140	=140	=140
4A]	8aL	4cc#X	4ee
.	8e	.	.
4r	8a	4cc	4ff
.	8aJ	.	.
2r	8aL	4bX	4dd
.	8f#X	.	.
.	8g	4b-	4ee
.	8gJ	.	.
=141	=141	=141	=141
4r	8gL	4a	4cc#X
.	8e	.	.
[4D	8fn	4b-	4dd
.	8fJ	.	.
8DL]	8fL	4bX	2r
8F	8a-	.	.
8E	8g	4cc	.
8EJ	8gJ	.	.
=142	=142	=142	=142
8EL	8gL	4cc#X	4r
8G	8b-J	.	.
8F#X	4a	4dd	[4aa
8F#J	.	.	.
8F#L	2c	[2ee-	8aaL]
8A	.	.	8ff#X
8G	.	.	8gg
8GJ	.	.	8ggJ
=143	=143	=143	=143
8GL	4B-	8ee-L]	8ggL
8B-	.	8cc#X	8een
8A	2r	8dd	8ffn
8AJ	.	8ddJ	8ffJ
[2A	.	8ddL	8ffL
.	.	8bX	8dd#
.	4g	8cc	8eeX
.	.	8ccJ	8eeJ
=144	=144	=144	=144
8AL]	4f#X	4.bX	4dd#
8F#X	.	.	.
8G	2e	.	8eeXL
8GJ	.	8b-	8ddJ
8GL	.	4.a	4cc#X
8E	.	.	.
8F	[4d	.	8ddL
8FJ	.	8a-	8ccJ
!!LO:LB:g=original
=145	=145	=145	=145
8FL	4d]	4.g	4bX
8D	.	.	.
8E-	4r	.	2cc
8FJ	.	8f	.
4G	2r	8e-L	.
.	.	8d	.
4GG	.	8f	4b
.	.	8fJ	.
=146	=146	=146	=146
2C	4r	8fL	4cc
.	.	8en	.
.	4E	8g	4g
.	.	8gJ	.
4r	4BX	8gL	4dd
.	.	8f#X	.
4F	4A	8a	4dd#
.	.	8aJ	.
=147	=147	=147	=147
2E	4r	8aL	4ee
.	.	8g#	.
.	4G	8bX	4bX
.	.	8bJ	.
4D#	4F#X	8bL	2ff#X
.	.	8aX	.
4A	4E	8cc	.
.	.	8ccJ	.
=148	=148	=148	=148
4G	4r	8ccL	4gg
.	.	8bX	.
2C	4D#	8a	4ff#X
.	.	8bJ	.
.	4EX	4g	8eeL
.	.	.	8ff#J
8BBXL	4F#X	4cc	4ee
8AAJ	.	.	.
=149	=149	=149	=149
4GG	4r	4bX	8bbXL
.	.	.	8dd#J
4C	8GL	4r	[4eeX
.	8AJ	.	.
4AA	4G	2r	8eeL]
.	.	.	8cc#X
4BBX	4F#X	.	8dd
.	.	.	8ddJ
=150	=150	=150	=150
4GG#	2E	4r	8ddL
.	.	.	8bX
4AAX	.	[4a	8ccn
.	.	.	8ccJ
4EE	4r	8aL]	8ccL
.	.	8f#X	8a
4r	[4e	8g	8b-X
.	.	8gJ	8b-J
!!LO:LB:g=original
=151	=151	=151	=151
4r	8eL]	4f#X	4a
.	8c#X	.	.
2r	8d	4f	4b-X
.	8dJ	.	.
.	8dL	4e	4g#
.	8BX	.	.
[4A	8c	4r	4aX
.	8cJ	.	.
=152	=152	=152	=152
8AL]	4BX	2r	4dd
8F#X	.	.	.
8G	4B-	.	4ee
8GJ	.	.	.
8GL	4.A	4r	4cc#X
8EJ	.	.	.
4F#	.	[4a	[4dd
.	8c	.	.
=153	=153	=153	=153
4G	8B-L	8aL]	8ddL]
.	8AJ	8f	8ff
4C#X	4B-	8g	8ee
.	.	8gJ	8eeJ
4r	4r	8gL	8eeL
.	.	8e	8gg
4D	8AL	8f	8ff
.	8BXJ	8fJ	8ffJ
=154	=154	=154	=154
4G	8c#XL	8fL	8ffL
.	8BXJ	8d	8aa
4B-X	4c#	8e	8gg
.	.	8eJ	8ggJ
4r	4r	8eL	8ggL
.	.	8c#XJ	8bb-
4F#X	4c	[4d	8aa
.	.	.	8aaJ
=155	=155	=155	=155
4F	8BXL	8dL]	4gg
.	8d	8BX	.
4E	8c	8c	[4g
.	8cJ	8eJ	.
4r	[2c	8eL	8gL]
.	.	8g	8b-
4E-	.	8f#X	8a
.	.	8f#J	8aJ
=156	=156	=156	=156
4D	8cL]	8f#XL	8aL
.	8A	8dJ	8f#X
4C#X	8B-	[4e	8g
.	8B-J	.	8gJ
4r	8B-L	8eL]	8gL
.	8G	8g	8b-J
4C	8A	8f#X	[4ee-
.	8AJ	8f#J	.
!!LO:LB:g=original
=157	=157	=157	=157
4BBX	8AL	8f#XL	8ee-XL]
.	8F#X	8a	8dd
2BB-	8G	8g	8gg
.	8GJ	8gJ	8ffJ
.	8GL	8gL	8eeXL
.	8E	8aJ	8dd
8AAL	8F	[4b-	8cc#X
8GG#J	8FJ	.	8ddJ
=158	=158	=158	=158
4AA	8EL	4b-]	4cc#X
.	8AJ	.	.
8r	4c#X	4e	4aa
8G	.	.	.
!!LO:MO:ori
*	*clefC3	*	*
!!LO:MO:end
8FL	4r	4a	4dd
8E	.	.	.
8D	[4b-	4g	4ee
8C#XJ	.	.	.
=159	=159	=159	=159
4D	8b-L]	4r	4r
.	8aJ	.	.
8r	[4dd	4f	4ff
8D	.	.	.
4E	8ddL]	4e	4gg
.	8cc	.	.
4F#X	8b-	4d	4aa
.	8aJ	.	.
=160	=160	=160	=160
8GL	4b-	4r	4r
8Fn	.	.	.
8E	4r	4c#X	4bb-
8GJ	.	.	.
!!LO:MO:ori
*	*clefC4	*	*
!!LO:MO:end
[2F	8r	4d	4aa
.	8AL	.	.
.	8c#X	4e	4gg
.	8AJ	.	.
=161	=161	=161	=161
8FL]	4.d	4r	4r
8FJ	.	.	.
[4B-	.	8fL	8ffL
.	8c#X	8gJ	8eeJ
8B-L]	4.d	4f	4ff
8AJ	.	.	.
4G	.	4e-	4gg
.	[8c	.	.
=162	=162	=162	=162
4F#X	8cL]	4d	4aa
.	8A	.	.
8r	8B-	4f#X	[4dd
8D	8B-J	.	.
4E-	[2B-	[2g	8ddL]
.	.	.	8b-
4EX	.	.	8cc
.	.	.	8ccJ
=163	=163	=163	=163
4F	8B-L]	4g]	[2cc
.	8G	.	.
8r	8A-	8fnL	.
8C	8A-J	8eJ	.
4D-	[2A-	[2f	8ccL]
.	.	.	8a-
4DX	.	.	8b-
.	.	.	8b-J
!!LO:LB:g=original
=164	=164	=164	=164
4E-	8A-XL]	8fL]	2b-
.	8FJ	8d	.
4B-	4G	8e-	.
.	.	8b-J	.
4EX	4d	8b-L	4r
.	.	8g	.
4F#X	4c	8a	[4dd
.	.	8aJ	.
=165	=165	=165	=165
4r	4r	4g	8ddL]
.	.	.	8ff
4G	4B-	[4cc	8een
.	.	.	8eeJ
4A	4A	8ccL]	[2ff
.	.	8bX	.
4BX	4G	8dd	.
.	.	8ddJ	.
=166	=166	=166	=166
4r	4r	4cc	8ffL]
.	.	.	8dd
4c	4F#X	4r	8ee-
.	.	.	8ee-J
4B-X	4G	8r	4.ee-
.	.	8g	.
4A	4A	[4f#X	.
.	.	.	8ee-
=167	=167	=167	=167
4r	4r	4f#]	8ddL
.	.	.	8cc
8GL	8B-L	4g	8b-
8F#XJ	8cJ	.	8aJ
4G	4B-	8r	4g
.	.	8e-L	.
4A	4A	8d	[>4f
.	.	8cJ	.
=168	=168	=168	=168
4BX	4G	4.d	8fL]
.	.	.	8a-
4BBX	4r	.	8g
.	.	8f	8gJ
4C	2r	8enL	8gL
.	.	8e	8b-
4C#X	.	8e	8aX
.	.	8gJ	8aJ
=169	=169	=169	=169
2D	4r	8f#XL	8aL
.	.	8f#	8cc
.	[4d	8f#	8bX
.	.	8aJ	8bJ
4r	8dL]	[2g	8bL
.	8f	.	8dd
[4B-	8e	.	8cc#X
.	8eJ	.	8cc#J
=170	=170	=170	=170
8B-L]	8eL	8gL]	8cc#XL
8G	8g	8b-	8ee
8A	8f	8a	8dd
8AJ	8fJ	8aJ	8ddJ
8AL	8fL	8aL	8ddL
8F	8a	8dd	8ff
8G	8g	8b-	8ee
8GJ	8gJ	8b-J	8eeJ
!!LO:LB:g=original
=171	=171	=171	=171
8GL	4c#X	4e	2a
8E	.	.	.
8F	4d	4d	.
8FJ	.	.	.
8FL	[2G	[2b-	4r
8D	.	.	.
8E	.	.	4gg
8EJ	.	.	.
=172	=172	=172	=172
8EL	4G]	4b-]	8cc#XL
8C#XJ	.	.	8ee
4D	4F	4a	8dd
.	.	.	8ddJ
4GG	4r	2b-	8ddL
.	.	.	8ff
[4G	4d	.	8ee
.	.	.	8eeJ
=173	=173	=173	=173
4G]	2c#X	2a	8eeL
.	.	.	8gg
8AL	.	.	8ff
8GJ	.	.	8eeJ
4F	4r	4r	8aaL
.	.	.	8dd
4B-	4d	4g	8gg
.	.	.	8ggJ
=174	=174	=174	=174
4.A	4c#X	4.a	8ggL
.	.	.	8ee
.	4d	.	8ff
8G	.	8b-	8ffJ
4A	4r	8aL	8ffL
.	.	8f	8ddJ
4AA	4C#X	8g	4ee
.	.	8gJ	.
=175	=175	=175	=175
4BB-	8DL	4f	4dd
.	8E	.	.
4FF	8F	4d	4a
.	8FJ	.	.
4C	8FL	4a	4r
.	8E	.	.
4C#X	8G	4g	[4b-
.	8GJ	.	.
=176	=176	=176	=176
4D	8GL	4r	8b-L]
.	8F	.	8a
4AA	8A	4f	8cc
.	8AJ	.	8ccJ
2E	8AL	4e	8ccL
.	8G	.	8bXJ
.	8B-	4d	[4gg
.	8B-J	.	.
=177	=177	=177	=177
4F	8B-L	4r	8ggL]
.	8A	.	8ff
4E	8B-	4c#X	8gg
.	8GJ	.	8eeJ
8DL	4.A	4d	4ff
8EJ	.	.	.
4D	.	4e	4bb-
.	8G	.	.
!!LO:LB:g=original
=178	=178	=178	=178
4A	8FL	4r	8aaL
.	8EJ	.	8cc#X
4B-	4D	8fL	8dd
.	.	8gJ	8ddJ
4.A	[2A	4f	8ddL
.	.	.	8bX
.	.	4e	8cc
8G	.	.	8ccJ
=179	=179	=179	=179
4F#X	4A]	2d	8ccL
.	.	.	8a
4F	2G	.	8bX
.	.	.	8ddJ
4E	.	4c#X	8gL
.	.	.	8b-
[4E-	4A	4c	8cc
.	.	.	8g-J
=180	=180	=180	=180
8E-L]	4B-	8d	4f
8D	.	4b-	.
8F	4F	.	4dd
8FJ	.	[8a	.
8FL	4c	8a]L	4aa
8EX	.	8cc	.
8G	4c#X	8ee	4gg
8GJ	.	8b-J	.
=181	=181	=181	=181
8GL	4d	8aL	4r
8F	.	8dd	.
8A	4A	8cc#X	4ff
8AJ	.	8ccJ	.
8AL	2e	8bXL	4een
8G	.	8b-	.
8B-	.	8a	4dd
8B-J	.	8g#J	.
=182	=182	=182	=182
[2A	4f	8aL	4r
.	.	8b-X	.
.	4e	8g	4cc#X
.	.	8aJ	.
4.A]	8dL	4f	4dd
.	8eJ	.	.
.	4d	4b-	4ee
8G#	.	.	.
=183	=183	=183	=183
[2A	4a	4c#X	4r
*	*	*	*^
.	4d	8aL	8ffL	8ddL
.	.	8b-J	8ggJ	8eeJ
4A]	[2A	4a	4ff	4dd
4AA	.	4g	4ee	4cc#X
*	*	*	*v	*v
=184	=184	=184	=184
1D;	1A;]	1f#X;	1dd;
==	==	==	==
*-	*-	*-	*-
!!!RDF**kern: > = above
!!!RDF**kern: < = below
!!!system-decoration: [(s1,s2,s3,s4)]
!!!URL-pdf: https://vmirror.imslp.org/files/imglnks/usimg/8/88/IMSLP504269-PMLP05843-BGA-25.1.pdf#page=48 @{SMS1}, page 48
!!!URL-pdf: https://s9.imslp.org/files/imglnks/usimg/1/1d/IMSLP469177-PMLP5843-Bach,_J.S._-_The_Art_of_the_Fugue.pdf#page=60 @{SMS2}, page 60
!!!URL-youtube: https://www.youtube.com/watch?v=OMtjlaDEMdI&t=2501s Netherlands Bach Society/Malinowski
!!!URL-youtube: https://www.youtube.com/watch?v=N6sUlZa-IrU&t=2501s Netherlands Bach Society
!!!SMS: @{SMS1}
!!!SMS1: Bach-Gesellschaft Ausgabe, Band 25.1 Leipzig: Breitkopf und Härtel, 1878. Plate B.W. XXV (1).
!!!SMS2: Bach-Gesellschaft Ausgabe, Band 47 Leipzig: Breitkopf und Härtel, 1926. Plate B.W. XLVII.
!!!PED: Wilhelm Rust
!!!PED-ODT: 1822-1892
!!!ONB: Die Kunst der Fuge nach dem Berliner Autograph in Anordnung und Lesarten
!!!ENC: Craig Stuart Sapp
!!!END: 2024/03/23
!!!EED: Craig Stuart Sapp
!!!EEV: 2024/03/28
!!!title: @{OPR} (@{SCA}), @{OTL}
!!!filter-keyboard: autostem -r | satb2gs | shed -e s/clefC./clefG2/I
!!!filter-modern: modori -m | autostem -r
